src/lib/packages/icons/src/assets/filled/envelope-lock.svg

<svg width="24" height="24" viewBox="0 0 24 24" fill="none" xmlns="http://www.w3.org/2000/svg">
<path d="M19.5 11.85C19.572 11.85 19.6431 11.852 19.7141 11.856C19.8111 11.862 20 11.79 20 11.551C20 11.34 20 7 20 7C20 5 19 4 17 4H5C3 4 2 5 2 7V16C2 18 3 19 5 19C5 19 14.4379 19 14.7009 19C14.9369 19 15 18.783 15 18.722C15 18.661 15 18.05 15 18.05C15 17.2 15.26 16.5 15.75 16V15.6C15.75 13.53 17.43 11.85 19.5 11.85ZM12.0291 12.179C11.7211 12.403 11.36 12.515 11 12.515C10.64 12.515 10.2779 12.403 9.97095 12.18L5.05908 8.60699C4.72408 8.36399 4.65004 7.89401 4.89404 7.55901C5.13704 7.22601 5.60389 7.149 5.94189 7.394L10.854 10.966C10.942 11.029 11.059 11.03 11.147 10.966L16.0591 7.394C16.3961 7.149 16.8639 7.22501 17.1069 7.55901C17.3509 7.89401 17.2769 8.36299 16.9419 8.60699L12.0291 12.179ZM21.75 16.79V15.6C21.75 14.359 20.74 13.35 19.5 13.35C18.26 13.35 17.25 14.359 17.25 15.6V16.79C16.751 16.961 16.5 17.38 16.5 18.05V20.15C16.5 21.05 16.9501 21.5 17.8501 21.5H21.1499C22.0499 21.5 22.5 21.05 22.5 20.15V18.05C22.5 17.38 22.249 16.961 21.75 16.79ZM20.25 16.7H18.75V15.6C18.75 15.186 19.087 14.85 19.5 14.85C19.913 14.85 20.25 15.186 20.25 15.6V16.7Z" fill="currentColor"/>
</svg>

<svg xmlns="http://www.w3.org/2000/svg" width="24" height="24" fill="none"><path fill="currentColor" d="M19.5 11.85c.072 0 .143.002.214.006.097.006.286-.066.286-.305V7c0-2-1-3-3-3H5C3 4 2 5 2 7v9c0 2 1 3 3 3h9.7c.237 0 .3-.217.3-.278v-.672c0-.85.26-1.55.75-2.05v-.4c0-2.07 1.68-3.75 3.75-3.75Zm-7.47.329a1.748 1.748 0 0 1-2.059.001L5.059 8.607a.75.75 0 1 1 .883-1.213l4.912 3.572a.25.25 0 0 0 .293 0l4.912-3.572a.75.75 0 1 1 .883 1.213l-4.913 3.572Zm9.72 4.611V15.6c0-1.241-1.01-2.25-2.25-2.25a2.253 2.253 0 0 0-2.25 2.25v1.19c-.499.171-.75.59-.75 1.26v2.1c0 .9.45 1.35 1.35 1.35h3.3c.9 0 1.35-.45 1.35-1.35v-2.1c0-.67-.251-1.089-.75-1.26Zm-1.5-.09h-1.5v-1.1a.75.75 0 0 1 1.5 0v1.1Z"/></svg>
